docs/images/icons/cursor_analyst.svg

<svg width="92.000000" height="39.000000" viewBox="0 0 92 39" fill="none" xmlns="http://www.w3.org/2000/svg" xmlns:xlink="http://www.w3.org/1999/xlink">
	<desc>
			Created with Pixso.
	</desc>
	<defs/>
	<rect id="Button" rx="6.750000" width="66.000000" height="26.000000" transform="translate(24.500000 12.500000)" fill="#FBBF0D" fill-opacity="1.000000"/>
	<path id="You" d="M61.1025 20.168L59.6191 20.168L59.6191 30.4766L61.1025 30.4766L61.1025 20.168ZM36.8896 27.8105L40.6494 27.8105L41.5518 30.4766L43.1719 30.4766L39.6104 20.6123L37.9561 20.6123L34.3945 30.4766L35.9873 30.4766L36.8896 27.8105ZM78.8555 23.0527L78.8555 21.3848L77.3789 21.3848L77.3789 23.0527L76.3535 23.0527L76.3535 24.2217L77.3789 24.2217L77.3789 28.5215Q77.3789 29.6016 77.8506 30.0596C78.165 30.3695 78.6937 30.5244 79.4365 30.5244C79.792 30.5244 80.07 30.4993 80.2705 30.4492L80.2705 29.2803C80.111 29.3031 79.9424 29.3145 79.7646 29.3145C79.1585 29.3145 78.8555 29 78.8555 28.3711L78.8555 24.2217L80.2773 24.2217L80.2773 23.0527L78.8555 23.0527ZM40.2598 26.5801L37.2793 26.5801L38.749 22.2529L38.79 22.2529L40.2598 26.5801ZM52.4619 29.9502C52.9268 30.3512 53.5306 30.5518 54.2734 30.5518C54.7839 30.5518 55.251 30.4333 55.6748 30.1963C56.0986 29.9593 56.4131 29.6403 56.6182 29.2393L56.6523 29.2393L56.6523 30.4766L58.0674 30.4766L58.0674 25.3838C58.0674 24.6501 57.7962 24.0622 57.2539 23.6201C56.7161 23.1781 55.9938 22.957 55.0869 22.957Q53.9913 22.957 53.2155 23.4552Q53.1055 23.5258 53.002 23.6064C52.446 24.0394 52.1566 24.584 52.1338 25.2402L53.5215 25.2402C53.5853 24.9167 53.7539 24.6592 54.0273 24.4678C54.3053 24.2764 54.6449 24.1807 55.0459 24.1807Q55.791 24.1807 56.1943 24.5156C56.4678 24.7435 56.6045 25.0693 56.6045 25.4932L56.6045 26.0674L54.6016 26.1836C53.681 26.2428 52.9792 26.457 52.4961 26.8262C52.0085 27.1953 51.7646 27.7034 51.7646 28.3506Q51.7646 28.945 52.0154 29.4018Q52.1828 29.7067 52.4619 29.9502ZM70.0213 24.3434Q69.8525 24.716 69.8525 25.165C69.8525 26.195 70.5202 26.874 71.8555 27.2021L73.1816 27.5303C73.5736 27.6305 73.8493 27.749 74.0088 27.8857C74.1729 28.0225 74.2549 28.2093 74.2549 28.4463C74.2549 28.7471 74.1204 28.9863 73.8516 29.1641C73.5781 29.3418 73.2113 29.4307 72.751 29.4307C71.7803 29.4307 71.2357 29.0638 71.1172 28.3301L69.6543 28.3301Q69.6946 28.8268 69.9128 29.2263Q70.1391 29.6405 70.5566 29.9502C71.1081 30.3604 71.8145 30.5654 72.6758 30.5654C73.5736 30.5654 74.3073 30.3581 74.877 29.9434C75.4466 29.5241 75.7314 28.9841 75.7314 28.3232C75.7314 27.7764 75.5765 27.3525 75.2666 27.0518C74.9567 26.751 74.4281 26.5094 73.6807 26.3271L72.4502 26.0332C71.68 25.8464 71.2949 25.5296 71.2949 25.083C71.2949 24.7913 71.4225 24.5544 71.6777 24.3721C71.9375 24.1943 72.277 24.1055 72.6963 24.1055C73.1201 24.1055 73.4642 24.2012 73.7285 24.3926C73.9928 24.584 74.1409 24.8438 74.1729 25.1719L75.5674 25.1719Q75.5549 24.7303 75.3841 24.3623Q75.1793 23.9213 74.7471 23.5859C74.2139 23.1712 73.5417 22.9639 72.7305 22.9639C71.8783 22.9639 71.1855 23.1667 70.6523 23.5723Q70.22 23.9049 70.0213 24.3434ZM45.5234 23.0527L44.1084 23.0527L44.1084 30.4766L45.5918 30.4766L45.5918 26.1904Q45.5918 25.5067 45.9049 25.0274Q45.9924 24.8934 46.1045 24.7754C46.4417 24.4199 46.8906 24.2422 47.4512 24.2422Q48.1621 24.2422 48.5807 24.592Q48.641 24.6425 48.6953 24.7002C48.9824 25.001 49.126 25.4339 49.126 25.999L49.126 30.4766L50.6094 30.4766L50.6094 25.7188Q50.6094 24.598 50.0682 23.8924Q49.9921 23.7932 49.9053 23.7021Q49.759 23.5516 49.5906 23.4321Q48.9411 22.9707 47.9639 22.9707Q46.8862 22.9707 46.2125 23.4924Q45.8093 23.8046 45.5508 24.3037L45.5234 24.3037L45.5234 23.0527ZM62.832 33.1357C62.987 33.1631 63.1875 33.1768 63.4336 33.1768Q64.5752 33.1768 65.1904 32.6641C65.6051 32.3223 65.972 31.707 66.291 30.8184L69.0732 23.0527L67.5146 23.0527L65.6074 29.123L65.5732 29.123L63.666 23.0527L62.0732 23.0527L64.7666 30.4971L64.6504 30.8799C64.5228 31.2718 64.3542 31.5521 64.1445 31.7207Q63.8369 31.9668 63.3037 31.9668Q62.9688 31.9668 62.832 31.9326L62.832 33.1357ZM56.0508 28.8975C55.6816 29.2119 55.2214 29.3691 54.6699 29.3691Q54.0273 29.3691 53.6445 29.082C53.3893 28.8952 53.2617 28.6423 53.2617 28.3232C53.2617 27.6579 53.7744 27.2933 54.7998 27.2295L56.6045 27.1064L56.6045 27.6875C56.6045 28.1751 56.4199 28.5784 56.0508 28.8975Z" fill="#FFFFFF" fill-opacity="1.000000" fill-rule="evenodd"/>
	<rect id="Button" rx="6.750000" width="66.000000" height="26.000000" transform="translate(24.500000 12.500000)" stroke="#FFD65E" stroke-opacity="1.000000" stroke-width="1.000000"/>
	<rect id="navigation-fill" width="24.000000" height="24.000000" fill="#FFFFFF" fill-opacity="0"/>
	<path id="Vector" d="M2.8999 2.29993L21.7051 8.56787C21.8022 8.60022 21.8872 8.66162 21.9487 8.74377C22.0098 8.82605 22.0444 8.92517 22.0474 9.02759C22.0503 9.13013 22.022 9.23108 21.9658 9.31677C21.9092 9.40259 21.8281 9.46887 21.7329 9.50696L13 12.9999L8.57471 21.85C8.52979 21.9401 8.4585 22.0144 8.37061 22.0635C8.28271 22.1124 8.18164 22.1335 8.08154 22.1243C7.98096 22.115 7.88574 22.0757 7.80859 22.0114C7.73096 21.947 7.67432 21.8608 7.64697 21.7639L2.25977 2.91089C2.23486 2.82336 2.23438 2.73059 2.2583 2.6427C2.28223 2.55481 2.32959 2.47522 2.39551 2.41223C2.46143 2.34937 2.54297 2.30566 2.63184 2.28589C2.7207 2.26611 2.81348 2.271 2.8999 2.29993Z" fill="#FBBF0D" fill-opacity="1.000000" fill-rule="nonzero"/>
	<path id="Vector" d="M13 12.9999L21.7329 9.50696C21.8281 9.46887 21.9092 9.40259 21.9658 9.31677C22.022 9.23108 22.0503 9.13013 22.0474 9.02759C22.0444 8.92517 22.0098 8.82605 21.9487 8.74377C21.8872 8.66162 21.8022 8.60022 21.7051 8.56787L2.8999 2.29993C2.81348 2.271 2.7207 2.26611 2.63184 2.28589C2.54297 2.30566 2.46143 2.34937 2.39551 2.41223C2.32959 2.47522 2.28223 2.55481 2.2583 2.6427C2.23438 2.73059 2.23486 2.82336 2.25977 2.91089L7.64697 21.7639C7.67432 21.8608 7.73096 21.947 7.80859 22.0114C7.88574 22.0757 7.98096 22.115 8.08154 22.1243C8.18164 22.1335 8.28271 22.1124 8.37061 22.0635C8.4585 22.0144 8.52979 21.9401 8.57471 21.85L13 12.9999ZM20.0942 9.08521L3.48193 3.54797L8.25537 20.2532L12.2754 12.2126L20.0942 9.08521Z" fill="#FFD65E" fill-opacity="1.000000" fill-rule="evenodd"/>
</svg>

<svg width="92" height="39" fill="none" xmlns="http://www.w3.org/2000/svg"><rect rx="6.75" width="66" height="26" transform="translate(24.5 12.5)" fill="#FBBF0D"/><path d="M61.102 20.168H59.62v10.309h1.483V20.168ZM36.89 27.811h3.76l.902 2.666h1.62l-3.562-9.865h-1.654l-3.562 9.865h1.593l.903-2.666Zm41.966-4.758v-1.668h-1.477v1.668h-1.026v1.169h1.026v4.3q0 1.08.472 1.538c.314.31.843.464 1.585.464.356 0 .634-.025.834-.075V29.28a3.537 3.537 0 0 1-.505.034c-.606 0-.91-.314-.91-.943v-4.15h1.422v-1.168h-1.421ZM40.26 26.58h-2.98l1.469-4.327h.041l1.47 4.327Zm12.202 3.37c.465.401 1.069.602 1.811.602.51 0 .978-.119 1.402-.356a2.27 2.27 0 0 0 .943-.957h.034v1.238h1.415v-5.093c0-.734-.27-1.322-.813-1.764-.538-.442-1.26-.663-2.167-.663q-1.096 0-1.872.498-.11.07-.213.151c-.556.433-.845.978-.868 1.634h1.388c.063-.323.232-.58.505-.772.278-.192.618-.287 1.019-.287q.745 0 1.148.335c.274.228.41.553.41.977v.574l-2.002.117c-.921.059-1.623.273-2.106.642-.488.37-.731.877-.731 1.525q0 .594.25 1.05.168.306.447.55Zm17.56-5.607q-.17.373-.17.822c0 1.03.668 1.709 2.004 2.037l1.326.328c.392.1.667.219.827.356a.69.69 0 0 1 .246.56c0 .301-.135.54-.403.718-.274.178-.64.267-1.101.267-.97 0-1.515-.367-1.634-1.1h-1.463q.04.496.259.895.226.415.644.724c.551.41 1.257.615 2.119.615.898 0 1.631-.207 2.201-.622.57-.419.854-.959.854-1.62 0-.547-.154-.97-.464-1.271-.31-.301-.839-.543-1.586-.725l-1.23-.294c-.771-.187-1.156-.503-1.156-.95 0-.292.127-.529.383-.71.26-.179.599-.268 1.018-.268.424 0 .768.096 1.032.288.265.191.413.45.445.779h1.394q-.012-.442-.183-.81-.205-.44-.637-.776c-.533-.415-1.205-.622-2.016-.622-.853 0-1.545.203-2.079.608q-.432.333-.63.771Zm-24.499-1.29h-1.415v7.424h1.484V26.19q0-.683.313-1.163.087-.134.2-.252c.337-.355.786-.533 1.346-.533q.711 0 1.13.35.06.05.114.108c.287.301.431.734.431 1.299v4.478h1.483v-4.758q0-1.121-.54-1.827-.077-.099-.164-.19-.146-.15-.314-.27-.65-.461-1.627-.461-1.078 0-1.752.521-.403.313-.661.812h-.028v-1.251Zm17.309 10.083c.155.027.355.04.602.04q1.141 0 1.756-.512c.415-.342.782-.957 1.101-1.846l2.782-7.765h-1.558l-1.908 6.07h-.034l-1.907-6.07h-1.593l2.694 7.444-.117.383c-.127.392-.296.672-.506.84q-.307.247-.84.247-.335 0-.472-.034v1.203Zm-6.781-4.239c-.37.315-.83.472-1.381.472q-.643 0-1.026-.287a.892.892 0 0 1-.382-.759c0-.665.512-1.03 1.538-1.093l1.805-.124v.581c0 .488-.185.891-.554 1.21Z" fill="#FFF" fill-rule="evenodd"/><rect rx="6.75" width="66" height="26" transform="translate(24.5 12.5)" stroke="#FFD65E"/><path d="M0 0h24v24H0z"/><path d="m2.9 2.3 18.805 6.268a.503.503 0 0 1 .342.46.501.501 0 0 1-.314.479L13 13l-4.425 8.85a.5.5 0 0 1-.928-.086L2.26 2.91a.5.5 0 0 1 .64-.61Z" fill="#FBBF0D"/><path d="m13 13 8.733-3.493a.502.502 0 0 0 .216-.763.503.503 0 0 0-.244-.176L2.9 2.3a.502.502 0 0 0-.64.61l5.387 18.854a.498.498 0 0 0 .724.3.5.5 0 0 0 .204-.214L13 13Zm7.094-3.915L3.482 3.548l4.773 16.705 4.02-8.04 7.82-3.128Z" fill="#FFD65E" fill-rule="evenodd"/></svg>
